Sources/FrostedUI/Resources/Icons.xcassets/medalCheckmark20.imageset/medal-checkmark-20.svg

<svg width="20" height="20" viewBox="0 0 20 20" fill="none" xmlns="http://www.w3.org/2000/svg" data-fui-icon="true">
  <path
    d="M13.0303 10.9697C13.3232 11.2626 13.3232 11.7374 13.0303 12.0303L9.53033 15.5303C9.23744 15.8232 8.76256 15.8232 8.46967 15.5303L6.96967 14.0303C6.67678 13.7374 6.67678 13.2626 6.96967 12.9697C7.26256 12.6768 7.73744 12.6768 8.03033 12.9697L9 13.9393L11.9697 10.9697C12.2626 10.6768 12.7374 10.6768 13.0303 10.9697Z"
    fill="currentColor"
  />
  <path
    fill-rule="evenodd"
    clip-rule="evenodd"
    d="M0.148572 2.37997C-0.106433 1.00924 1.05413 0 2.24983 0H3.95105C5.49749 0 6.61505 1.24629 6.88468 2.58945C7.1296 3.80951 7.57748 4.80072 7.9642 5.48608C8.12882 5.77783 8.28135 6.01238 8.40057 6.18356C8.91425 6.0635 9.44969 6 9.99996 6C10.5502 6 11.0856 6.06349 11.5993 6.18353C11.7185 6.01236 11.871 5.77782 12.0356 5.48608C12.4223 4.80072 12.8702 3.80951 13.1151 2.58945C13.3848 1.24629 14.5023 0 16.0488 0H17.75C18.9457 0 20.1063 1.00924 19.8513 2.37997C19.4195 4.70068 18.1279 6.39802 16.9751 7.50052C16.4328 8.01906 15.9139 8.41335 15.5138 8.68703C16.4449 9.87569 17 11.373 17 13C17 16.866 13.866 20 9.99996 20C6.13397 20 2.99996 16.866 2.99996 13C2.99996 11.373 3.55501 9.87573 4.48607 8.68708C4.08599 8.4134 3.56703 8.01909 3.02477 7.50052C1.87191 6.39802 0.580305 4.70068 0.148572 2.37997ZM14.4476 7.59437C14.4949 7.56404 14.5456 7.53084 14.5994 7.49474C14.9527 7.25759 15.4342 6.89858 15.9383 6.41644C16.9506 5.4484 18.0209 4.01714 18.3766 2.10563C18.4048 1.95385 18.3604 1.81839 18.2542 1.706C18.1417 1.58693 17.9611 1.5 17.75 1.5H16.0488C15.3861 1.5 14.751 2.06191 14.5858 2.88468C14.3028 4.29426 13.787 5.43452 13.342 6.22321C13.2424 6.39979 13.146 6.55924 13.0562 6.70066C13.5562 6.94369 14.0229 7.24448 14.4476 7.59437ZM6.65781 6.22321C6.75746 6.39981 6.85383 6.55927 6.94364 6.7007C6.44367 6.94373 5.97698 7.24452 5.55223 7.59441C5.50496 7.56407 5.45423 7.53085 5.40042 7.49474C5.0471 7.25759 4.56565 6.89858 4.06149 6.41644C3.04923 5.4484 1.97888 4.01714 1.62327 2.10563C1.59503 1.95385 1.63944 1.81839 1.74561 1.706C1.85808 1.58693 2.0387 1.5 2.24983 1.5H3.95105C4.61375 1.5 5.24885 2.06191 5.41402 2.88468C5.69698 4.29426 6.2128 5.43452 6.65781 6.22321ZM9.99996 18.5C13.0375 18.5 15.5 16.0376 15.5 13C15.5 9.96243 13.0375 7.5 9.99996 7.5C6.9624 7.5 4.49996 9.96243 4.49996 13C4.49996 16.0376 6.9624 18.5 9.99996 18.5Z"
    fill="currentColor"
  />
</svg>

<svg xmlns="http://www.w3.org/2000/svg" width="20" height="20" fill="none" data-fui-icon="true" viewBox="0 0 20 20"><path fill="currentColor" d="M13.03 10.97a.75.75 0 0 1 0 1.06l-3.5 3.5a.75.75 0 0 1-1.06 0l-1.5-1.5a.75.75 0 1 1 1.06-1.06l.97.97 2.97-2.97a.75.75 0 0 1 1.06 0"/><path fill="currentColor" fill-rule="evenodd" d="M.149 2.38C-.106 1.01 1.054 0 2.249 0h1.702c1.546 0 2.664 1.246 2.934 2.59a9.9 9.9 0 0 0 1.08 2.896c.164.292.316.526.436.698a7 7 0 0 1 3.198 0 9 9 0 0 0 .437-.698 9.9 9.9 0 0 0 1.08-2.897C13.384 1.246 14.501 0 16.048 0h1.701c1.196 0 2.356 1.01 2.101 2.38-.431 2.32-1.723 4.018-2.876 5.12-.542.52-1.061.913-1.461 1.187a7 7 0 1 1-11.028 0c-.4-.274-.919-.668-1.461-1.186C1.872 6.398.58 4.7.149 2.38m14.299 5.214.151-.1c.354-.236.835-.595 1.34-1.078 1.012-.968 2.082-2.399 2.438-4.31a.44.44 0 0 0-.123-.4.7.7 0 0 0-.504-.206h-1.701c-.663 0-1.298.562-1.463 1.385a11.4 11.4 0 0 1-1.53 3.816c.5.243.967.543 1.392.893m-7.79-1.37q.15.264.286.477c-.5.243-.967.544-1.392.893l-.152-.1a10 10 0 0 1-1.339-1.078C3.05 5.448 1.98 4.017 1.623 2.106a.44.44 0 0 1 .123-.4.7.7 0 0 1 .504-.206H3.95c.663 0 1.298.562 1.463 1.385.283 1.41.799 2.55 1.244 3.338M10 18.5a5.5 5.5 0 1 0 0-11 5.5 5.5 0 0 0 0 11" clip-rule="evenodd"/></svg>
